outputs/icons/social/remove_person_round.svg

<svg xmlns="http://www.w3.org/2000/svg" width="1200" height="1200" fill="none"><g clip-path="url(#a)"><path fill="#000" d="M700 400c0-110.5-89.5-200-200-200s-200 89.5-200 200 89.5 200 200 200 200-89.5 200-200M100 900v50c0 27.5 22.5 50 50 50h700c27.5 0 50-22.5 50-50v-50c0-133-266.5-200-400-200s-400 67-400 200m800-400h200c27.5 0 50 22.5 50 50s-22.5 50-50 50H900c-27.5 0-50-22.5-50-50s22.5-50 50-50"/></g><defs><clipPath id="a"><path fill="#fff" d="M0 0h1200v1200H0z"/></clipPath></defs></svg>

<svg width="1200" height="1200" viewBox="0 0 1200 1200" fill="none" xmlns="http://www.w3.org/2000/svg"><g clip-path="url(#clip0_231_5351)"><path d="M700 400C700 289.5 610.5 200 500 200C389.5 200 300 289.5 300 400C300 510.5 389.5 600 500 600C610.5 600 700 510.5 700 400ZM100 900V950C100 977.5 122.5 1000 150 1000H850C877.5 1000 900 977.5 900 950V900C900 767 633.5 700 500 700C366.5 700 100 767 100 900ZM900 500H1100C1127.5 500 1150 522.5 1150 550C1150 577.5 1127.5 600 1100 600H900C872.5 600 850 577.5 850 550C850 522.5 872.5 500 900 500Z" fill="#1D1E23"/></g><defs><clipPath id="clip0_231_5351"><path width="24" fill="white" d="M0 0H1200V1200H0V0z"/></clipPath></defs></svg>
